X: 1
T: On the Danforth
C: Keith Murphy
R: Reel
M: C|
L: 1/8
K: A
"^A"\
|: "A"c2cd c2A2 | "E"B2c2 "D"F4 | "F#m"A3B c2BA | "E"B2"(A/E  E)"c2 c2B2 |\
|  "A"c2cd c2A2 | "E"B2c2 "D"F4 | "F#m"A3B c2BA | "E"B2G2 "A"A4 :|
"^B"\
|: "A"e3f e2d2 | c2A2 "Bm"B2d2 | "A/C#"c2A2 "D"B2d2 | "A/E"cBA2 "E"B2E2 |\
|"F#m"e3f "E/G#"e2d2 | "A"c2A2 "D"B2d2 | "A"cBA2 "E"B2G2 | "A"A4 "D"A4 :|
P: B-part lower octave:
|: \
"A"E3 F E2 D2 | C2 A,2 "Bm"B,2 D2 | "A/C#"C2 A,2 "D"B,2 D2 | "A/E"CB, A,2 "E"B,4 |\
"F#m"E3 F "E/G#"E2 D2 | "A"C2 A,2 "D"B,2 D2 | "A"CB, A,2 "E"B,2 G,2 | "A"A,4 "D"A,4 :|
%%text Transition: Make the last chord an A instead of a D.


